img/icons/HTML5.svg

<svg width="56" height="56" viewBox="0 0 56 56" fill="none" xmlns="http://www.w3.org/2000/svg">
<circle cx="28" cy="28" r="22" fill="#C4C4C4" fill-opacity="0.4"/>
<path d="M16 15L17.7573 41.256L28.5 45L39.2427 41.256L41 15H16Z" fill="#FF7816"/>
<path d="M36.3084 22.9688H24.0238L24.3221 27.3633H36.0101L35.2971 38.0038L28.5 40.4121L21.7028 38.0038L21.4708 34.4531H24.7865L24.8527 35.4199L28.5 36.703L32.1472 35.4199L32.4455 30.8789H21.2221L20.4595 19.4531H36.5404L36.3084 22.9688Z" fill="#ECECF1"/>
<path d="M16.6114 2.42073C10.2724 5.24303 5.20713 10.3186 2.39768 16.6633C-0.411762 23.008 -0.765257 30.1699 1.40573 36.7604C3.57672 43.351 8.11753 48.9006 14.1478 52.3334C20.1781 55.7663 27.2682 56.8377 34.0435 55.34C40.8189 53.8423 46.7967 49.8822 50.8182 44.2274C54.8396 38.5727 56.6182 31.6261 55.8089 24.7346C54.9997 17.843 51.6604 11.4974 46.4384 6.92807C41.2164 2.35871 34.4837 -0.10889 27.5457 0.00368522L27.6152 4.28802C33.4915 4.19267 39.1938 6.28265 43.6167 10.1528C48.0396 14.0229 50.8679 19.3974 51.5533 25.2343C52.2387 31.0712 50.7323 36.9547 47.3263 41.7441C43.9202 46.5335 38.8572 49.8876 33.1187 51.1561C27.3802 52.4246 21.3751 51.5171 16.2676 48.6096C11.1602 45.7021 7.31427 41.0018 5.47551 35.4198C3.63675 29.8378 3.93615 23.7719 6.31566 18.3982C8.69517 13.0244 12.9853 8.72558 18.3542 6.33518L16.6114 2.42073Z" fill="#3B5999"/>
</svg>

<svg width="56" height="56" fill="none" xmlns="http://www.w3.org/2000/svg"><circle cx="28" cy="28" r="22" fill="#C4C4C4" fill-opacity=".4"/><path d="M16 15l1.757 26.256L28.5 45l10.743-3.744L41 15H16z" fill="#FF7816"/><path d="M36.308 22.969H24.024l.298 4.394H36.01l-.713 10.64-6.797 2.41-6.797-2.41-.232-3.55h3.316l.066.967 3.647 1.283 3.647-1.283.299-4.541H21.222l-.763-11.426H36.54l-.232 3.516z" fill="#ECECF1"/><path d="M16.611 2.42A28 28 0 1027.546.005l.07 4.284a23.715 23.715 0 11-9.262 2.047l-1.743-3.914z" fill="#3B5999"/></svg>
